X:1
T: Miss Begg of Benton
C:
R:Strathspey
Q: 128
K:A
M:4/4
L:1/16
|:E2|A3B A3B c3e c3A|B3c B3A G3B G3E|A3B A3E F3G A3F|E3F A3B cA3 A2E2|
A3B A3B c3e c3A|B3c B3A G3B G3E|A3B A3E F3G A3F|E3F A3B cA3 A2f2|
e3A B3A a3A A2Bc|e3A f3A GB3 B2cd|e3A f3A g3A a3F|E3F A3B cA3 A3f|
e3A B3A a3A A2Bc|e3A f3A GB3 B2cd|e3c f3d ge3 a3f|e3c B3g aA3 A2:|
